src/views/pages/plaster/assets/3dl/day.3DL
#Created by: Adobe Photoshop Export Color Lookup Plugin
#Description: lut_day.psd
0 205 409 614 818 1023
0 0 0
0 0 0
0 0 4095
0 0 4095
0 0 4095
0 0 4095
0 0 0
0 0 0
0 0 4095
0 0 4095
0 0 4095
0 0 4095
0 4095 0
0 4095 0
0 4095 4095
0 4095 4095
0 4095 4095
0 4095 4095
0 4095 0
0 4095 0
0 4095 4095
0 4095 4095
0 4095 4095
0 4095 4095
0 4095 0
0 4095 0
0 4095 4095
0 4095 4095
0 4095 4095
0 4095 4095
0 4095 0
0 4095 0
0 4095 4095
0 4095 4095
0 4095 4095
0 4095 4095
0 0 0
0 0 0
0 0 4095
0 0 4095
0 0 4095
0 0 4095
0 0 0
0 0 0
0 0 4095
0 0 4095
0 0 4095
0 0 4095
0 4095 0
0 4095 0
0 4095 4095
0 4095 4095
0 4095 4095
0 4095 4095
0 4095 0
0 4095 0
0 4095 4095
0 4095 4095
0 4095 4095
0 4095 4095
0 4095 0
0 4095 0
0 4095 4095
0 4095 4095
0 4095 4095
0 4095 4095
0 4095 0
0 4095 0
0 4095 4095
0 4095 4095
0 4095 4095
0 4095 4095
4095 0 0
4095 0 0
4095 0 4095
4095 0 4095
4095 0 4095
4095 0 4095
4095 0 0
4095 0 0
4095 0 4095
4095 0 4095
4095 0 4095
4095 0 4095
4095 4095 0
4095 4095 0
4095 4095 4095
4095 4095 4095
4095 4095 4095
4095 4095 4095
4095 4095 0
4095 4095 0
4095 4095 4095
4095 4095 4095
4095 4095 4095
4095 4095 4095
4095 4095 0
4095 4095 0
4095 4095 4095
4095 4095 4095
4095 4095 4095
4095 4095 4095
4095 4095 0
4095 4095 0
4095 4095 4095
4095 4095 4095
4095 4095 4095
4095 4095 4095
4095 0 0
4095 0 0
4095 0 4095
4095 0 4095
4095 0 4095
4095 0 4095
4095 0 0
4095 0 0
4095 0 4095
4095 0 4095
4095 0 4095
4095 0 4095
4095 4095 0
4095 4095 0
4095 4095 4095
4095 4095 4095
4095 4095 4095
4095 4095 4095
4095 4095 0
4095 4095 0
4095 4095 4095
4095 4095 4095
4095 4095 4095
4095 4095 4095
4095 4095 0
4095 4095 0
4095 4095 4095
4095 4095 4095
4095 4095 4095
4095 4095 4095
4095 4095 0
4095 4095 0
4095 4095 4095
4095 4095 4095
4095 4095 4095
4095 4095 4095
4095 0 0
4095 0 0
4095 0 4095
4095 0 4095
4095 0 4095
4095 0 4095
4095 0 0
4095 0 0
4095 0 4095
4095 0 4095
4095 0 4095
4095 0 4095
4095 4095 0
4095 4095 0
4095 4095 4095
4095 4095 4095
4095 4095 4095
4095 4095 4095
4095 4095 0
4095 4095 0
4095 4095 4095
4095 4095 4095
4095 4095 4095
4095 4095 4095
4095 4095 0
4095 4095 0
4095 4095 4095
4095 4095 4095
4095 4095 4095
4095 4095 4095
4095 4095 0
4095 4095 0
4095 4095 4095
4095 4095 4095
4095 4095 4095
4095 4095 4095
4095 0 0
4095 0 0
4095 0 4095
4095 0 4095
4095 0 4095
4095 0 4095
4095 0 0
4095 0 0
4095 0 4095
4095 0 4095
4095 0 4095
4095 0 4095
4095 4095 0
4095 4095 0
4095 4095 4095
4095 4095 4095
4095 4095 4095
4095 4095 4095
4095 4095 0
4095 4095 0
4095 4095 4095
4095 4095 4095
4095 4095 4095
4095 4095 4095
4095 4095 0
4095 4095 0
4095 4095 4095
4095 4095 4095
4095 4095 4095
4095 4095 4095
4095 4095 0
4095 4095 0
4095 4095 4095
4095 4095 4095
4095 4095 4095
4095 4095 4095
