src/views/pages/plaster/assets/3dl/day.3DL
#Created by: Adobe Photoshop Export Color Lookup Plugin
#Description: lut_day.psd
0 68 136 205 273 341 409 477 546 614 682 750 818 887 955 1023
0 0 0
0 0 0
0 0 0
0 0 0
0 0 4095
0 0 4095
0 0 4095
0 0 4095
0 0 4095
0 0 4095
0 0 4095
0 0 4095
0 0 4095
0 0 3814
0 0 3611
0 0 4095
0 0 0
0 0 0
0 0 0
0 0 0
0 0 4095
0 0 4095
0 0 4095
0 0 4095
0 0 4095
0 0 4095
0 0 4095
0 0 4095
0 0 4095
0 0 3814
0 0 3611
0 0 4095
0 0 0
0 0 0
0 0 0
0 0 0
0 0 4095
0 0 4095
0 0 4095
0 0 4095
0 0 4095
0 0 4095
0 0 4095
0 0 4095
0 0 4095
0 0 3814
0 0 3611
0 0 4095
0 0 0
0 0 0
0 0 0
0 0 0
0 0 4095
0 0 4095
0 0 4095
0 0 4095
0 0 4095
0 0 4095
0 0 4095
0 0 4095
0 0 4095
0 0 3814
0 0 3611
0 0 4095
0 4095 0
0 4095 0
0 4095 0
0 4095 0
0 4095 4095
0 4095 4095
0 4095 4095
0 4095 4095
0 4095 4095
0 4095 4095
0 4095 4095
0 4095 4095
0 4095 4095
0 4095 3814
0 4095 3611
0 4095 4095
0 4095 0
0 4095 0
0 4095 0
0 4095 0
0 4095 4095
0 4095 4095
0 4095 4095
0 4095 4095
0 4095 4095
0 4095 4095
0 4095 4095
0 4095 4095
0 4095 4095
0 4095 3814
0 4095 3611
0 4095 4095
0 4095 0
0 4095 0
0 4095 0
0 4095 0
0 4095 4095
0 4095 4095
0 4095 4095
0 4095 4095
0 4095 4095
0 4095 4095
0 4095 4095
0 4095 4095
0 4095 4095
0 4095 3814
0 4095 3611
0 4095 4095
0 4095 0
0 4095 0
0 4095 0
0 4095 0
0 4095 4095
0 4095 4095
0 4095 4095
0 4095 4095
0 4095 4095
0 4095 4095
0 4095 4095
0 4095 4095
0 4095 4095
0 4095 3814
0 4095 3611
0 4095 4095
0 4095 0
0 4095 0
0 4095 0
0 4095 0
0 4095 4095
0 4095 4095
0 4095 4095
0 4095 4095
0 4095 4095
0 4095 4095
0 4095 4095
0 4095 4095
0 4095 4095
0 4095 3814
0 4095 3611
0 4095 4095
0 4095 0
0 4095 0
0 4095 0
0 4095 0
0 4095 4095
0 4095 4095
0 4095 4095
0 4095 4095
0 4095 4095
0 4095 4095
0 4095 4095
0 4095 4095
0 4095 4095
0 4095 3814
0 4095 3611
0 4095 4095
0 4095 0
0 4095 0
0 4095 0
0 4095 0
0 4095 4095
0 4095 4095
0 4095 4095
0 4095 4095
0 4095 4095
0 4095 4095
0 4095 4095
0 4095 4095
0 4095 4095
0 4095 3814
0 4095 3611
0 4095 4095
0 4095 0
0 4095 0
0 4095 0
0 4095 0
0 4095 4095
0 4095 4095
0 4095 4095
0 4095 4095
0 4095 4095
0 4095 4095
0 4095 4095
0 4095 4095
0 4095 4095
0 4095 3814
0 4095 3611
0 4095 4095
0 4095 0
0 4095 0
0 4095 0
0 4095 0
0 4095 4095
0 4095 4095
0 4095 4095
0 4095 4095
0 4095 4095
0 4095 4095
0 4095 4095
0 4095 4095
0 4095 4095
0 4095 3814
0 4095 3611
0 4095 4095
0 3814 0
0 3814 0
0 3814 0
0 3814 0
0 3814 4095
0 3814 4095
0 3814 4095
0 3814 4095
0 3814 4095
0 3814 4095
0 3814 4095
0 3814 4095
0 3814 4095
0 3814 3814
0 3814 3611
0 3814 4095
0 3611 0
0 3611 0
0 3611 0
0 3611 0
0 3611 4095
0 3611 4095
0 3611 4095
0 3611 4095
0 3611 4095
0 3611 4095
0 3611 4095
0 3611 4095
0 3611 4095
0 3611 3814
0 3611 3611
0 3611 4095
0 4095 0
0 4095 0
0 4095 0
0 4095 0
0 4095 4095
0 4095 4095
0 4095 4095
0 4095 4095
0 4095 4095
0 4095 4095
0 4095 4095
0 4095 4095
0 4095 4095
0 4095 3814
0 4095 3611
0 4095 4095
0 0 0
0 0 0
0 0 0
0 0 0
0 0 4095
0 0 4095
0 0 4095
0 0 4095
0 0 4095
0 0 4095
0 0 4095
0 0 4095
0 0 4095
0 0 3814
0 0 3611
0 0 4095
0 0 0
0 0 0
0 0 0
0 0 0
0 0 4095
0 0 4095
0 0 4095
0 0 4095
0 0 4095
0 0 4095
0 0 4095
0 0 4095
0 0 4095
0 0 3814
0 0 3611
0 0 4095
0 0 0
0 0 0
0 0 0
0 0 0
0 0 4095
0 0 4095
0 0 4095
0 0 4095
0 0 4095
0 0 4095
0 0 4095
0 0 4095
0 0 4095
0 0 3814
0 0 3611
0 0 4095
0 0 0
0 0 0
0 0 0
0 0 0
0 0 4095
0 0 4095
0 0 4095
0 0 4095
0 0 4095
0 0 4095
0 0 4095
0 0 4095
0 0 4095
0 0 3814
0 0 3611
0 0 4095
0 4095 0
0 4095 0
0 4095 0
0 4095 0
0 4095 4095
0 4095 4095
0 4095 4095
0 4095 4095
0 4095 4095
0 4095 4095
0 4095 4095
0 4095 4095
0 4095 4095
0 4095 3814
0 4095 3611
0 4095 4095
0 4095 0
0 4095 0
0 4095 0
0 4095 0
0 4095 4095
0 4095 4095
0 4095 4095
0 4095 4095
0 4095 4095
0 4095 4095
0 4095 4095
0 4095 4095
0 4095 4095
0 4095 3814
0 4095 3611
0 4095 4095
0 4095 0
0 4095 0
0 4095 0
0 4095 0
0 4095 4095
0 4095 4095
0 4095 4095
0 4095 4095
0 4095 4095
0 4095 4095
0 4095 4095
0 4095 4095
0 4095 4095
0 4095 3814
0 4095 3611
0 4095 4095
0 4095 0
0 4095 0
0 4095 0
0 4095 0
0 4095 4095
0 4095 4095
0 4095 4095
0 4095 4095
0 4095 4095
0 4095 4095
0 4095 4095
0 4095 4095
0 4095 4095
0 4095 3814
0 4095 3611
0 4095 4095
0 4095 0
0 4095 0
0 4095 0
0 4095 0
0 4095 4095
0 4095 4095
0 4095 4095
0 4095 4095
0 4095 4095
0 4095 4095
0 4095 4095
0 4095 4095
0 4095 4095
0 4095 3814
0 4095 3611
0 4095 4095
0 4095 0
0 4095 0
0 4095 0
0 4095 0
0 4095 4095
0 4095 4095
0 4095 4095
0 4095 4095
0 4095 4095
0 4095 4095
0 4095 4095
0 4095 4095
0 4095 4095
0 4095 3814
0 4095 3611
0 4095 4095
0 4095 0
0 4095 0
0 4095 0
0 4095 0
0 4095 4095
0 4095 4095
0 4095 4095
0 4095 4095
0 4095 4095
0 4095 4095
0 4095 4095
0 4095 4095
0 4095 4095
0 4095 3814
0 4095 3611
0 4095 4095
0 4095 0
0 4095 0
0 4095 0
0 4095 0
0 4095 4095
0 4095 4095
0 4095 4095
0 4095 4095
0 4095 4095
0 4095 4095
0 4095 4095
0 4095 4095
0 4095 4095
0 4095 3814
0 4095 3611
0 4095 4095
0 4095 0
0 4095 0
0 4095 0
0 4095 0
0 4095 4095
0 4095 4095
0 4095 4095
0 4095 4095
0 4095 4095
0 4095 4095
0 4095 4095
0 4095 4095
0 4095 4095
0 4095 3814
0 4095 3611
0 4095 4095
0 3814 0
0 3814 0
0 3814 0
0 3814 0
0 3814 4095
0 3814 4095
0 3814 4095
0 3814 4095
0 3814 4095
0 3814 4095
0 3814 4095
0 3814 4095
0 3814 4095
0 3814 3814
0 3814 3611
0 3814 4095
0 3611 0
0 3611 0
0 3611 0
0 3611 0
0 3611 4095
0 3611 4095
0 3611 4095
0 3611 4095
0 3611 4095
0 3611 4095
0 3611 4095
0 3611 4095
0 3611 4095
0 3611 3814
0 3611 3611
0 3611 4095
0 4095 0
0 4095 0
0 4095 0
0 4095 0
0 4095 4095
0 4095 4095
0 4095 4095
0 4095 4095
0 4095 4095
0 4095 4095
0 4095 4095
0 4095 4095
0 4095 4095
0 4095 3814
0 4095 3611
0 4095 4095
0 0 0
0 0 0
0 0 0
0 0 0
0 0 4095
0 0 4095
0 0 4095
0 0 4095
0 0 4095
0 0 4095
0 0 4095
0 0 4095
0 0 4095
0 0 3814
0 0 3611
0 0 4095
0 0 0
0 0 0
0 0 0
0 0 0
0 0 4095
0 0 4095
0 0 4095
0 0 4095
0 0 4095
0 0 4095
0 0 4095
0 0 4095
0 0 4095
0 0 3814
0 0 3611
0 0 4095
0 0 0
0 0 0
0 0 0
0 0 0
0 0 4095
0 0 4095
0 0 4095
0 0 4095
0 0 4095
0 0 4095
0 0 4095
0 0 4095
0 0 4095
0 0 3814
0 0 3611
0 0 4095
0 0 0
0 0 0
0 0 0
0 0 0
0 0 4095
0 0 4095
0 0 4095
0 0 4095
0 0 4095
0 0 4095
0 0 4095
0 0 4095
0 0 4095
0 0 3814
0 0 3611
0 0 4095
0 4095 0
0 4095 0
0 4095 0
0 4095 0
0 4095 4095
0 4095 4095
0 4095 4095
0 4095 4095
0 4095 4095
0 4095 4095
0 4095 4095
0 4095 4095
0 4095 4095
0 4095 3814
0 4095 3611
0 4095 4095
0 4095 0
0 4095 0
0 4095 0
0 4095 0
0 4095 4095
0 4095 4095
0 4095 4095
0 4095 4095
0 4095 4095
0 4095 4095
0 4095 4095
0 4095 4095
0 4095 4095
0 4095 3814
0 4095 3611
0 4095 4095
0 4095 0
0 4095 0
0 4095 0
0 4095 0
0 4095 4095
0 4095 4095
0 4095 4095
0 4095 4095
0 4095 4095
0 4095 4095
0 4095 4095
0 4095 4095
0 4095 4095
0 4095 3814
0 4095 3611
0 4095 4095
0 4095 0
0 4095 0
0 4095 0
0 4095 0
0 4095 4095
0 4095 4095
0 4095 4095
0 4095 4095
0 4095 4095
0 4095 4095
0 4095 4095
0 4095 4095
0 4095 4095
0 4095 3814
0 4095 3611
0 4095 4095
0 4095 0
0 4095 0
0 4095 0
0 4095 0
0 4095 4095
0 4095 4095
0 4095 4095
0 4095 4095
0 4095 4095
0 4095 4095
0 4095 4095
0 4095 4095
0 4095 4095
0 4095 3814
0 4095 3611
0 4095 4095
0 4095 0
0 4095 0
0 4095 0
0 4095 0
0 4095 4095
0 4095 4095
0 4095 4095
0 4095 4095
0 4095 4095
0 4095 4095
0 4095 4095
0 4095 4095
0 4095 4095
0 4095 3814
0 4095 3611
0 4095 4095
0 4095 0
0 4095 0
0 4095 0
0 4095 0
0 4095 4095
0 4095 4095
0 4095 4095
0 4095 4095
0 4095 4095
0 4095 4095
0 4095 4095
0 4095 4095
0 4095 4095
0 4095 3814
0 4095 3611
0 4095 4095
0 4095 0
0 4095 0
0 4095 0
0 4095 0
0 4095 4095
0 4095 4095
0 4095 4095
0 4095 4095
0 4095 4095
0 4095 4095
0 4095 4095
0 4095 4095
0 4095 4095
0 4095 3814
0 4095 3611
0 4095 4095
0 4095 0
0 4095 0
0 4095 0
0 4095 0
0 4095 4095
0 4095 4095
0 4095 4095
0 4095 4095
0 4095 4095
0 4095 4095
0 4095 4095
0 4095 4095
0 4095 4095
0 4095 3814
0 4095 3611
0 4095 4095
0 3814 0
0 3814 0
0 3814 0
0 3814 0
0 3814 4095
0 3814 4095
0 3814 4095
0 3814 4095
0 3814 4095
0 3814 4095
0 3814 4095
0 3814 4095
0 3814 4095
0 3814 3814
0 3814 3611
0 3814 4095
0 3611 0
0 3611 0
0 3611 0
0 3611 0
0 3611 4095
0 3611 4095
0 3611 4095
0 3611 4095
0 3611 4095
0 3611 4095
0 3611 4095
0 3611 4095
0 3611 4095
0 3611 3814
0 3611 3611
0 3611 4095
0 4095 0
0 4095 0
0 4095 0
0 4095 0
0 4095 4095
0 4095 4095
0 4095 4095
0 4095 4095
0 4095 4095
0 4095 4095
0 4095 4095
0 4095 4095
0 4095 4095
0 4095 3814
0 4095 3611
0 4095 4095
0 0 0
0 0 0
0 0 0
0 0 0
0 0 4095
0 0 4095
0 0 4095
0 0 4095
0 0 4095
0 0 4095
0 0 4095
0 0 4095
0 0 4095
0 0 3814
0 0 3611
0 0 4095
0 0 0
0 0 0
0 0 0
0 0 0
0 0 4095
0 0 4095
0 0 4095
0 0 4095
0 0 4095
0 0 4095
0 0 4095
0 0 4095
0 0 4095
0 0 3814
0 0 3611
0 0 4095
0 0 0
0 0 0
0 0 0
0 0 0
0 0 4095
0 0 4095
0 0 4095
0 0 4095
0 0 4095
0 0 4095
0 0 4095
0 0 4095
0 0 4095
0 0 3814
0 0 3611
0 0 4095
0 0 0
0 0 0
0 0 0
0 0 0
0 0 4095
0 0 4095
0 0 4095
0 0 4095
0 0 4095
0 0 4095
0 0 4095
0 0 4095
0 0 4095
0 0 3814
0 0 3611
0 0 4095
0 4095 0
0 4095 0
0 4095 0
0 4095 0
0 4095 4095
0 4095 4095
0 4095 4095
0 4095 4095
0 4095 4095
0 4095 4095
0 4095 4095
0 4095 4095
0 4095 4095
0 4095 3814
0 4095 3611
0 4095 4095
0 4095 0
0 4095 0
0 4095 0
0 4095 0
0 4095 4095
0 4095 4095
0 4095 4095
0 4095 4095
0 4095 4095
0 4095 4095
0 4095 4095
0 4095 4095
0 4095 4095
0 4095 3814
0 4095 3611
0 4095 4095
0 4095 0
0 4095 0
0 4095 0
0 4095 0
0 4095 4095
0 4095 4095
0 4095 4095
0 4095 4095
0 4095 4095
0 4095 4095
0 4095 4095
0 4095 4095
0 4095 4095
0 4095 3814
0 4095 3611
0 4095 4095
0 4095 0
0 4095 0
0 4095 0
0 4095 0
0 4095 4095
0 4095 4095
0 4095 4095
0 4095 4095
0 4095 4095
0 4095 4095
0 4095 4095
0 4095 4095
0 4095 4095
0 4095 3814
0 4095 3611
0 4095 4095
0 4095 0
0 4095 0
0 4095 0
0 4095 0
