src/views/pages/plaster/assets/3dl/lut.3dl
#Created by: Adobe Photoshop Export Color Lookup Plugin
#Description: Sans titre-2
0 146 292 438 585 731 877 1023
0 0 0
0 0 777
0 0 1554
0 0 2322
0 0 2989
0 0 3515
0 0 3889
0 0 4095
0 777 0
0 777 777
0 777 1554
0 777 2322
0 777 2989
0 777 3515
0 777 3889
0 777 4095
0 1554 0
0 1554 777
0 1554 1554
0 1554 2322
0 1554 2989
0 1554 3515
0 1554 3889
0 1554 4095
0 2322 0
0 2322 777
0 2322 1554
0 2322 2322
0 2322 2989
0 2322 3515
0 2322 3889
0 2322 4095
0 2989 0
0 2989 777
0 2989 1554
0 2989 2322
0 2989 2989
0 2989 3515
0 2989 3889
0 2989 4095
0 3515 0
0 3515 777
0 3515 1554
0 3515 2322
0 3515 2989
0 3515 3515
0 3515 3889
0 3515 4095
0 3889 0
0 3889 777
0 3889 1554
0 3889 2322
0 3889 2989
0 3889 3515
0 3889 3889
0 3889 4095
0 4095 0
0 4095 777
0 4095 1554
0 4095 2322
0 4095 2989
0 4095 3515
0 4095 3889
0 4095 4095
777 0 0
777 0 777
777 0 1554
777 0 2322
777 0 2989
777 0 3515
777 0 3889
777 0 4095
777 777 0
777 777 777
777 777 1554
777 777 2322
777 777 2989
777 777 3515
777 777 3889
777 777 4095
777 1554 0
777 1554 777
777 1554 1554
777 1554 2322
777 1554 2989
777 1554 3515
777 1554 3889
777 1554 4095
777 2322 0
777 2322 777
777 2322 1554
777 2322 2322
777 2322 2989
777 2322 3515
777 2322 3889
777 2322 4095
777 2989 0
777 2989 777
777 2989 1554
777 2989 2322
777 2989 2989
777 2989 3515
777 2989 3889
777 2989 4095
777 3515 0
777 3515 777
777 3515 1554
777 3515 2322
777 3515 2989
777 3515 3515
777 3515 3889
777 3515 4095
777 3889 0
777 3889 777
777 3889 1554
777 3889 2322
777 3889 2989
777 3889 3515
777 3889 3889
777 3889 4095
777 4095 0
777 4095 777
777 4095 1554
777 4095 2322
777 4095 2989
777 4095 3515
777 4095 3889
777 4095 4095
1554 0 0
1554 0 777
1554 0 1554
1554 0 2322
1554 0 2989
1554 0 3515
1554 0 3889
1554 0 4095
1554 777 0
1554 777 777
1554 777 1554
1554 777 2322
1554 777 2989
1554 777 3515
1554 777 3889
1554 777 4095
1554 1554 0
1554 1554 777
1554 1554 1554
1554 1554 2322
1554 1554 2989
1554 1554 3515
1554 1554 3889
1554 1554 4095
1554 2322 0
1554 2322 777
1554 2322 1554
1554 2322 2322
1554 2322 2989
1554 2322 3515
1554 2322 3889
1554 2322 4095
1554 2989 0
1554 2989 777
1554 2989 1554
1554 2989 2322
1554 2989 2989
1554 2989 3515
1554 2989 3889
1554 2989 4095
1554 3515 0
1554 3515 777
1554 3515 1554
1554 3515 2322
1554 3515 2989
1554 3515 3515
1554 3515 3889
1554 3515 4095
1554 3889 0
1554 3889 777
1554 3889 1554
1554 3889 2322
1554 3889 2989
1554 3889 3515
1554 3889 3889
1554 3889 4095
1554 4095 0
1554 4095 777
1554 4095 1554
1554 4095 2322
1554 4095 2989
1554 4095 3515
1554 4095 3889
1554 4095 4095
2322 0 0
2322 0 777
2322 0 1554
2322 0 2322
2322 0 2989
2322 0 3515
2322 0 3889
2322 0 4095
2322 777 0
2322 777 777
2322 777 1554
2322 777 2322
2322 777 2989
2322 777 3515
2322 777 3889
2322 777 4095
2322 1554 0
2322 1554 777
2322 1554 1554
2322 1554 2322
2322 1554 2989
2322 1554 3515
2322 1554 3889
2322 1554 4095
2322 2322 0
2322 2322 777
2322 2322 1554
2322 2322 2322
2322 2322 2989
2322 2322 3515
2322 2322 3889
2322 2322 4095
2322 2989 0
2322 2989 777
2322 2989 1554
2322 2989 2322
2322 2989 2989
2322 2989 3515
2322 2989 3889
2322 2989 4095
2322 3515 0
2322 3515 777
2322 3515 1554
2322 3515 2322
2322 3515 2989
2322 3515 3515
2322 3515 3889
2322 3515 4095
2322 3889 0
2322 3889 777
2322 3889 1554
2322 3889 2322
2322 3889 2989
2322 3889 3515
2322 3889 3889
2322 3889 4095
2322 4095 0
2322 4095 777
2322 4095 1554
2322 4095 2322
2322 4095 2989
2322 4095 3515
2322 4095 3889
2322 4095 4095
2989 0 0
2989 0 777
2989 0 1554
2989 0 2322
2989 0 2989
2989 0 3515
2989 0 3889
2989 0 4095
2989 777 0
2989 777 777
2989 777 1554
2989 777 2322
2989 777 2989
2989 777 3515
2989 777 3889
2989 777 4095
2989 1554 0
2989 1554 777
2989 1554 1554
2989 1554 2322
2989 1554 2989
2989 1554 3515
2989 1554 3889
2989 1554 4095
2989 2322 0
2989 2322 777
2989 2322 1554
2989 2322 2322
2989 2322 2989
2989 2322 3515
2989 2322 3889
2989 2322 4095
2989 2989 0
2989 2989 777
2989 2989 1554
2989 2989 2322
2989 2989 2989
2989 2989 3515
2989 2989 3889
2989 2989 4095
2989 3515 0
2989 3515 777
2989 3515 1554
2989 3515 2322
2989 3515 2989
2989 3515 3515
2989 3515 3889
2989 3515 4095
2989 3889 0
2989 3889 777
2989 3889 1554
2989 3889 2322
2989 3889 2989
2989 3889 3515
2989 3889 3889
2989 3889 4095
2989 4095 0
2989 4095 777
2989 4095 1554
2989 4095 2322
2989 4095 2989
2989 4095 3515
2989 4095 3889
2989 4095 4095
3515 0 0
3515 0 777
3515 0 1554
3515 0 2322
3515 0 2989
3515 0 3515
3515 0 3889
3515 0 4095
3515 777 0
3515 777 777
3515 777 1554
3515 777 2322
3515 777 2989
3515 777 3515
3515 777 3889
3515 777 4095
3515 1554 0
3515 1554 777
3515 1554 1554
3515 1554 2322
3515 1554 2989
3515 1554 3515
3515 1554 3889
3515 1554 4095
3515 2322 0
3515 2322 777
3515 2322 1554
3515 2322 2322
3515 2322 2989
3515 2322 3515
3515 2322 3889
3515 2322 4095
3515 2989 0
3515 2989 777
3515 2989 1554
3515 2989 2322
3515 2989 2989
3515 2989 3515
3515 2989 3889
3515 2989 4095
3515 3515 0
3515 3515 777
3515 3515 1554
3515 3515 2322
3515 3515 2989
3515 3515 3515
3515 3515 3889
3515 3515 4095
3515 3889 0
3515 3889 777
3515 3889 1554
3515 3889 2322
3515 3889 2989
3515 3889 3515
3515 3889 3889
3515 3889 4095
3515 4095 0
3515 4095 777
3515 4095 1554
3515 4095 2322
3515 4095 2989
3515 4095 3515
3515 4095 3889
3515 4095 4095
3889 0 0
3889 0 777
3889 0 1554
3889 0 2322
3889 0 2989
3889 0 3515
3889 0 3889
3889 0 4095
3889 777 0
3889 777 777
3889 777 1554
3889 777 2322
3889 777 2989
3889 777 3515
3889 777 3889
3889 777 4095
3889 1554 0
3889 1554 777
3889 1554 1554
3889 1554 2322
3889 1554 2989
3889 1554 3515
3889 1554 3889
3889 1554 4095
3889 2322 0
3889 2322 777
3889 2322 1554
3889 2322 2322
3889 2322 2989
3889 2322 3515
3889 2322 3889
3889 2322 4095
3889 2989 0
3889 2989 777
3889 2989 1554
3889 2989 2322
3889 2989 2989
3889 2989 3515
3889 2989 3889
3889 2989 4095
3889 3515 0
3889 3515 777
3889 3515 1554
3889 3515 2322
3889 3515 2989
3889 3515 3515
3889 3515 3889
3889 3515 4095
3889 3889 0
3889 3889 777
3889 3889 1554
3889 3889 2322
3889 3889 2989
3889 3889 3515
3889 3889 3889
3889 3889 4095
3889 4095 0
3889 4095 777
3889 4095 1554
3889 4095 2322
3889 4095 2989
3889 4095 3515
3889 4095 3889
3889 4095 4095
4095 0 0
4095 0 777
4095 0 1554
4095 0 2322
4095 0 2989
4095 0 3515
4095 0 3889
4095 0 4095
4095 777 0
4095 777 777
4095 777 1554
4095 777 2322
4095 777 2989
4095 777 3515
4095 777 3889
4095 777 4095
4095 1554 0
4095 1554 777
4095 1554 1554
4095 1554 2322
4095 1554 2989
4095 1554 3515
4095 1554 3889
4095 1554 4095
4095 2322 0
4095 2322 777
4095 2322 1554
4095 2322 2322
4095 2322 2989
4095 2322 3515
4095 2322 3889
4095 2322 4095
4095 2989 0
4095 2989 777
4095 2989 1554
4095 2989 2322
4095 2989 2989
4095 2989 3515
4095 2989 3889
4095 2989 4095
4095 3515 0
4095 3515 777
4095 3515 1554
4095 3515 2322
4095 3515 2989
4095 3515 3515
4095 3515 3889
4095 3515 4095
4095 3889 0
4095 3889 777
4095 3889 1554
4095 3889 2322
4095 3889 2989
4095 3889 3515
4095 3889 3889
4095 3889 4095
4095 4095 0
4095 4095 777
4095 4095 1554
4095 4095 2322
4095 4095 2989
4095 4095 3515
4095 4095 3889
4095 4095 4095
