docs/3DL/night-e0VgbcMg.3DL
#Created by: Adobe Photoshop Export Color Lookup Plugin
#Description: about-night-lut.psd
0 68 136 205 273 341 409 477 546 614 682 750 818 887 955 1023
0 0 0
0 0 57
0 0 130
0 0 235
0 0 388
0 0 605
0 0 885
0 0 1215
0 0 1582
0 0 1971
0 0 2368
0 0 2760
0 0 3133
0 0 3475
0 0 3791
0 0 4095
0 57 0
0 57 57
0 57 130
0 57 235
0 57 388
0 57 605
0 57 885
0 57 1215
0 57 1582
0 57 1971
0 57 2368
0 57 2760
0 57 3133
0 57 3475
0 57 3791
0 57 4095
0 130 0
0 130 57
0 130 130
0 130 235
0 130 388
0 130 605
0 130 885
0 130 1215
0 130 1582
0 130 1971
0 130 2368
0 130 2760
0 130 3133
0 130 3475
0 130 3791
0 130 4095
0 235 0
0 235 57
0 235 130
0 235 235
0 235 388
0 235 605
0 235 885
0 235 1215
0 235 1582
0 235 1971
0 235 2368
0 235 2760
0 235 3133
0 235 3475
0 235 3791
0 235 4095
0 388 0
0 388 57
0 388 130
0 388 235
0 388 388
0 388 605
0 388 885
0 388 1215
0 388 1582
0 388 1971
0 388 2368
0 388 2760
0 388 3133
0 388 3475
0 388 3791
0 388 4095
0 605 0
0 605 57
0 605 130
0 605 235
0 605 388
0 605 605
0 605 885
0 605 1215
0 605 1582
0 605 1971
0 605 2368
0 605 2760
0 605 3133
0 605 3475
0 605 3791
0 605 4095
0 885 0
0 885 57
0 885 130
0 885 235
0 885 388
0 885 605
0 885 885
0 885 1215
0 885 1582
0 885 1971
0 885 2368
0 885 2760
0 885 3133
0 885 3475
0 885 3791
0 885 4095
0 1215 0
0 1215 57
0 1215 130
0 1215 235
0 1215 388
0 1215 605
0 1215 885
0 1215 1215
0 1215 1582
0 1215 1971
0 1215 2368
0 1215 2760
0 1215 3133
0 1215 3475
0 1215 3791
0 1215 4095
0 1582 0
0 1582 57
0 1582 130
0 1582 235
0 1582 388
0 1582 605
0 1582 885
0 1582 1215
0 1582 1582
0 1582 1971
0 1582 2368
0 1582 2760
0 1582 3133
0 1582 3475
0 1582 3791
0 1582 4095
0 1971 0
0 1971 57
0 1971 130
0 1971 235
0 1971 388
0 1971 605
0 1971 885
0 1971 1215
0 1971 1582
0 1971 1971
0 1971 2368
0 1971 2760
0 1971 3133
0 1971 3475
0 1971 3791
0 1971 4095
0 2368 0
0 2368 57
0 2368 130
0 2368 235
0 2368 388
0 2368 605
0 2368 885
0 2368 1215
0 2368 1582
0 2368 1971
0 2368 2368
0 2368 2760
0 2368 3133
0 2368 3475
0 2368 3791
0 2368 4095
0 2760 0
0 2760 57
0 2760 130
0 2760 235
0 2760 388
0 2760 605
0 2760 885
0 2760 1215
0 2760 1582
0 2760 1971
0 2760 2368
0 2760 2760
0 2760 3133
0 2760 3475
0 2760 3791
0 2760 4095
0 3133 0
0 3133 57
0 3133 130
0 3133 235
0 3133 388
0 3133 605
0 3133 885
0 3133 1215
0 3133 1582
0 3133 1971
0 3133 2368
0 3133 2760
0 3133 3133
0 3133 3475
0 3133 3791
0 3133 4095
0 3475 0
0 3475 57
0 3475 130
0 3475 235
0 3475 388
0 3475 605
0 3475 885
0 3475 1215
0 3475 1582
0 3475 1971
0 3475 2368
0 3475 2760
0 3475 3133
0 3475 3475
0 3475 3791
0 3475 4095
0 3791 0
0 3791 57
0 3791 130
0 3791 235
0 3791 388
0 3791 605
0 3791 885
0 3791 1215
0 3791 1582
0 3791 1971
0 3791 2368
0 3791 2760
0 3791 3133
0 3791 3475
0 3791 3791
0 3791 4095
0 4095 0
0 4095 57
0 4095 130
0 4095 235
0 4095 388
0 4095 605
0 4095 885
0 4095 1215
0 4095 1582
0 4095 1971
0 4095 2368
0 4095 2760
0 4095 3133
0 4095 3475
0 4095 3791
0 4095 4095
57 0 0
57 0 57
57 0 130
57 0 235
57 0 388
57 0 605
57 0 885
57 0 1215
57 0 1582
57 0 1971
57 0 2368
57 0 2760
57 0 3133
57 0 3475
57 0 3791
57 0 4095
57 57 0
57 57 57
57 57 130
57 57 235
57 57 388
57 57 605
57 57 885
57 57 1215
57 57 1582
57 57 1971
57 57 2368
57 57 2760
57 57 3133
57 57 3475
57 57 3791
57 57 4095
57 130 0
57 130 57
57 130 130
57 130 235
57 130 388
57 130 605
57 130 885
57 130 1215
57 130 1582
57 130 1971
57 130 2368
57 130 2760
57 130 3133
57 130 3475
57 130 3791
57 130 4095
57 235 0
57 235 57
57 235 130
57 235 235
57 235 388
57 235 605
57 235 885
57 235 1215
57 235 1582
57 235 1971
57 235 2368
57 235 2760
57 235 3133
57 235 3475
57 235 3791
57 235 4095
57 388 0
57 388 57
57 388 130
57 388 235
57 388 388
57 388 605
57 388 885
57 388 1215
57 388 1582
57 388 1971
57 388 2368
57 388 2760
57 388 3133
57 388 3475
57 388 3791
57 388 4095
57 605 0
57 605 57
57 605 130
57 605 235
57 605 388
57 605 605
57 605 885
57 605 1215
57 605 1582
57 605 1971
57 605 2368
57 605 2760
57 605 3133
57 605 3475
57 605 3791
57 605 4095
57 885 0
57 885 57
57 885 130
57 885 235
57 885 388
57 885 605
57 885 885
57 885 1215
57 885 1582
57 885 1971
57 885 2368
57 885 2760
57 885 3133
57 885 3475
57 885 3791
57 885 4095
57 1215 0
57 1215 57
57 1215 130
57 1215 235
57 1215 388
57 1215 605
57 1215 885
57 1215 1215
57 1215 1582
57 1215 1971
57 1215 2368
57 1215 2760
57 1215 3133
57 1215 3475
57 1215 3791
57 1215 4095
57 1582 0
57 1582 57
57 1582 130
57 1582 235
57 1582 388
57 1582 605
57 1582 885
57 1582 1215
57 1582 1582
57 1582 1971
57 1582 2368
57 1582 2760
57 1582 3133
57 1582 3475
57 1582 3791
57 1582 4095
57 1971 0
57 1971 57
57 1971 130
57 1971 235
57 1971 388
57 1971 605
57 1971 885
57 1971 1215
57 1971 1582
57 1971 1971
57 1971 2368
57 1971 2760
57 1971 3133
57 1971 3475
57 1971 3791
57 1971 4095
57 2368 0
57 2368 57
57 2368 130
57 2368 235
57 2368 388
57 2368 605
57 2368 885
57 2368 1215
57 2368 1582
57 2368 1971
57 2368 2368
57 2368 2760
57 2368 3133
57 2368 3475
57 2368 3791
57 2368 4095
57 2760 0
57 2760 57
57 2760 130
57 2760 235
57 2760 388
57 2760 605
57 2760 885
57 2760 1215
57 2760 1582
57 2760 1971
57 2760 2368
57 2760 2760
57 2760 3133
57 2760 3475
57 2760 3791
57 2760 4095
57 3133 0
57 3133 57
57 3133 130
57 3133 235
57 3133 388
57 3133 605
57 3133 885
57 3133 1215
57 3133 1582
57 3133 1971
57 3133 2368
57 3133 2760
57 3133 3133
57 3133 3475
57 3133 3791
57 3133 4095
57 3475 0
57 3475 57
57 3475 130
57 3475 235
57 3475 388
57 3475 605
57 3475 885
57 3475 1215
57 3475 1582
57 3475 1971
57 3475 2368
57 3475 2760
57 3475 3133
57 3475 3475
57 3475 3791
57 3475 4095
57 3791 0
57 3791 57
57 3791 130
57 3791 235
57 3791 388
57 3791 605
57 3791 885
57 3791 1215
57 3791 1582
57 3791 1971
57 3791 2368
57 3791 2760
57 3791 3133
57 3791 3475
57 3791 3791
57 3791 4095
57 4095 0
57 4095 57
57 4095 130
57 4095 235
57 4095 388
57 4095 605
57 4095 885
57 4095 1215
57 4095 1582
57 4095 1971
57 4095 2368
57 4095 2760
57 4095 3133
57 4095 3475
57 4095 3791
57 4095 4095
130 0 0
130 0 57
130 0 130
130 0 235
130 0 388
130 0 605
130 0 885
130 0 1215
130 0 1582
130 0 1971
130 0 2368
130 0 2760
130 0 3133
130 0 3475
130 0 3791
130 0 4095
130 57 0
130 57 57
130 57 130
130 57 235
130 57 388
130 57 605
130 57 885
130 57 1215
130 57 1582
130 57 1971
130 57 2368
130 57 2760
130 57 3133
130 57 3475
130 57 3791
130 57 4095
130 130 0
130 130 57
130 130 130
130 130 235
130 130 388
130 130 605
130 130 885
130 130 1215
130 130 1582
130 130 1971
130 130 2368
130 130 2760
130 130 3133
130 130 3475
130 130 3791
130 130 4095
130 235 0
130 235 57
130 235 130
130 235 235
130 235 388
130 235 605
130 235 885
130 235 1215
130 235 1582
130 235 1971
130 235 2368
130 235 2760
130 235 3133
130 235 3475
130 235 3791
130 235 4095
130 388 0
130 388 57
130 388 130
130 388 235
130 388 388
130 388 605
130 388 885
130 388 1215
130 388 1582
130 388 1971
130 388 2368
130 388 2760
130 388 3133
130 388 3475
130 388 3791
130 388 4095
130 605 0
130 605 57
130 605 130
130 605 235
130 605 388
130 605 605
130 605 885
130 605 1215
130 605 1582
130 605 1971
130 605 2368
130 605 2760
130 605 3133
130 605 3475
130 605 3791
130 605 4095
130 885 0
130 885 57
130 885 130
130 885 235
130 885 388
130 885 605
130 885 885
130 885 1215
130 885 1582
130 885 1971
130 885 2368
130 885 2760
130 885 3133
130 885 3475
130 885 3791
130 885 4095
130 1215 0
130 1215 57
130 1215 130
130 1215 235
130 1215 388
130 1215 605
130 1215 885
130 1215 1215
130 1215 1582
130 1215 1971
130 1215 2368
130 1215 2760
130 1215 3133
130 1215 3475
130 1215 3791
130 1215 4095
130 1582 0
130 1582 57
130 1582 130
130 1582 235
130 1582 388
130 1582 605
130 1582 885
130 1582 1215
130 1582 1582
130 1582 1971
130 1582 2368
130 1582 2760
130 1582 3133
130 1582 3475
130 1582 3791
130 1582 4095
130 1971 0
130 1971 57
130 1971 130
130 1971 235
130 1971 388
130 1971 605
130 1971 885
130 1971 1215
130 1971 1582
130 1971 1971
130 1971 2368
130 1971 2760
130 1971 3133
130 1971 3475
130 1971 3791
130 1971 4095
130 2368 0
130 2368 57
130 2368 130
130 2368 235
130 2368 388
130 2368 605
130 2368 885
130 2368 1215
130 2368 1582
130 2368 1971
130 2368 2368
130 2368 2760
130 2368 3133
130 2368 3475
130 2368 3791
130 2368 4095
130 2760 0
130 2760 57
130 2760 130
130 2760 235
130 2760 388
130 2760 605
130 2760 885
130 2760 1215
130 2760 1582
130 2760 1971
130 2760 2368
130 2760 2760
130 2760 3133
130 2760 3475
130 2760 3791
130 2760 4095
130 3133 0
130 3133 57
130 3133 130
130 3133 235
130 3133 388
130 3133 605
130 3133 885
130 3133 1215
130 3133 1582
130 3133 1971
130 3133 2368
130 3133 2760
130 3133 3133
130 3133 3475
130 3133 3791
130 3133 4095
130 3475 0
130 3475 57
130 3475 130
130 3475 235
130 3475 388
130 3475 605
130 3475 885
130 3475 1215
130 3475 1582
130 3475 1971
130 3475 2368
130 3475 2760
130 3475 3133
130 3475 3475
130 3475 3791
130 3475 4095
130 3791 0
130 3791 57
130 3791 130
130 3791 235
130 3791 388
130 3791 605
130 3791 885
130 3791 1215
130 3791 1582
130 3791 1971
130 3791 2368
130 3791 2760
130 3791 3133
130 3791 3475
130 3791 3791
130 3791 4095
130 4095 0
130 4095 57
130 4095 130
130 4095 235
130 4095 388
130 4095 605
130 4095 885
130 4095 1215
130 4095 1582
130 4095 1971
130 4095 2368
130 4095 2760
130 4095 3133
130 4095 3475
130 4095 3791
130 4095 4095
235 0 0
235 0 57
235 0 130
235 0 235
235 0 388
235 0 605
235 0 885
235 0 1215
235 0 1582
235 0 1971
235 0 2368
235 0 2760
235 0 3133
235 0 3475
235 0 3791
235 0 4095
235 57 0
235 57 57
235 57 130
235 57 235
235 57 388
235 57 605
235 57 885
235 57 1215
235 57 1582
235 57 1971
235 57 2368
235 57 2760
235 57 3133
235 57 3475
235 57 3791
235 57 4095
235 130 0
235 130 57
235 130 130
235 130 235
235 130 388
235 130 605
235 130 885
235 130 1215
235 130 1582
235 130 1971
235 130 2368
235 130 2760
235 130 3133
235 130 3475
235 130 3791
235 130 4095
235 235 0
235 235 57
235 235 130
235 235 235
235 235 388
235 235 605
235 235 885
235 235 1215
235 235 1582
235 235 1971
235 235 2368
235 235 2760
235 235 3133
235 235 3475
235 235 3791
235 235 4095
235 388 0
235 388 57
235 388 130
235 388 235
235 388 388
235 388 605
235 388 885
235 388 1215
235 388 1582
235 388 1971
235 388 2368
235 388 2760
235 388 3133
235 388 3475
235 388 3791
235 388 4095
235 605 0
235 605 57
235 605 130
235 605 235
235 605 388
235 605 605
235 605 885
235 605 1215
235 605 1582
235 605 1971
235 605 2368
235 605 2760
235 605 3133
235 605 3475
235 605 3791
235 605 4095
235 885 0
235 885 57
235 885 130
235 885 235
235 885 388
235 885 605
235 885 885
235 885 1215
235 885 1582
235 885 1971
235 885 2368
235 885 2760
235 885 3133
235 885 3475
235 885 3791
235 885 4095
235 1215 0
235 1215 57
235 1215 130
235 1215 235
235 1215 388
235 1215 605
235 1215 885
235 1215 1215
235 1215 1582
235 1215 1971
235 1215 2368
235 1215 2760
235 1215 3133
235 1215 3475
235 1215 3791
235 1215 4095
235 1582 0
235 1582 57
235 1582 130
235 1582 235
