docs/3DL/night-e0VgbcMg.3DL
#Created by: Adobe Photoshop Export Color Lookup Plugin
#Description: about-night-lut.psd
0 205 409 614 818 1023
0 0 0
0 0 235
0 0 885
0 0 1971
0 0 3133
0 0 4095
0 235 0
0 235 235
0 235 885
0 235 1971
0 235 3133
0 235 4095
0 885 0
0 885 235
0 885 885
0 885 1971
0 885 3133
0 885 4095
0 1971 0
0 1971 235
0 1971 885
0 1971 1971
0 1971 3133
0 1971 4095
0 3133 0
0 3133 235
0 3133 885
0 3133 1971
0 3133 3133
0 3133 4095
0 4095 0
0 4095 235
0 4095 885
0 4095 1971
0 4095 3133
0 4095 4095
235 0 0
235 0 235
235 0 885
235 0 1971
235 0 3133
235 0 4095
235 235 0
235 235 235
235 235 885
235 235 1971
235 235 3133
235 235 4095
235 885 0
235 885 235
235 885 885
235 885 1971
235 885 3133
235 885 4095
235 1971 0
235 1971 235
235 1971 885
235 1971 1971
235 1971 3133
235 1971 4095
235 3133 0
235 3133 235
235 3133 885
235 3133 1971
235 3133 3133
235 3133 4095
235 4095 0
235 4095 235
235 4095 885
235 4095 1971
235 4095 3133
235 4095 4095
885 0 0
885 0 235
885 0 885
885 0 1971
885 0 3133
885 0 4095
885 235 0
885 235 235
885 235 885
885 235 1971
885 235 3133
885 235 4095
885 885 0
885 885 235
885 885 885
885 885 1971
885 885 3133
885 885 4095
885 1971 0
885 1971 235
885 1971 885
885 1971 1971
885 1971 3133
885 1971 4095
885 3133 0
885 3133 235
885 3133 885
885 3133 1971
885 3133 3133
885 3133 4095
885 4095 0
885 4095 235
885 4095 885
885 4095 1971
885 4095 3133
885 4095 4095
1971 0 0
1971 0 235
1971 0 885
1971 0 1971
1971 0 3133
1971 0 4095
1971 235 0
1971 235 235
1971 235 885
1971 235 1971
1971 235 3133
1971 235 4095
1971 885 0
1971 885 235
1971 885 885
1971 885 1971
1971 885 3133
1971 885 4095
1971 1971 0
1971 1971 235
1971 1971 885
1971 1971 1971
1971 1971 3133
1971 1971 4095
1971 3133 0
1971 3133 235
1971 3133 885
1971 3133 1971
1971 3133 3133
1971 3133 4095
1971 4095 0
1971 4095 235
1971 4095 885
1971 4095 1971
1971 4095 3133
1971 4095 4095
3133 0 0
3133 0 235
3133 0 885
3133 0 1971
3133 0 3133
3133 0 4095
3133 235 0
3133 235 235
3133 235 885
3133 235 1971
3133 235 3133
3133 235 4095
3133 885 0
3133 885 235
3133 885 885
3133 885 1971
3133 885 3133
3133 885 4095
3133 1971 0
3133 1971 235
3133 1971 885
3133 1971 1971
3133 1971 3133
3133 1971 4095
3133 3133 0
3133 3133 235
3133 3133 885
3133 3133 1971
3133 3133 3133
3133 3133 4095
3133 4095 0
3133 4095 235
3133 4095 885
3133 4095 1971
3133 4095 3133
3133 4095 4095
4095 0 0
4095 0 235
4095 0 885
4095 0 1971
4095 0 3133
4095 0 4095
4095 235 0
4095 235 235
4095 235 885
4095 235 1971
4095 235 3133
4095 235 4095
4095 885 0
4095 885 235
4095 885 885
4095 885 1971
4095 885 3133
4095 885 4095
4095 1971 0
4095 1971 235
4095 1971 885
4095 1971 1971
4095 1971 3133
4095 1971 4095
4095 3133 0
4095 3133 235
4095 3133 885
4095 3133 1971
4095 3133 3133
4095 3133 4095
4095 4095 0
4095 4095 235
4095 4095 885
4095 4095 1971
4095 4095 3133
4095 4095 4095
